icons/mobile/20/svg/globe-20.svg

<svg width="20" height="20" viewBox="0 0 20 20" fill="none" xmlns="http://www.w3.org/2000/svg">
<path fill-rule="evenodd" clip-rule="evenodd" d="M10 2C14.4183 2 18 5.58172 18 10C18 14.4183 14.4183 18 10 18C5.58172 18 2 14.4183 2 10C2 5.58172 5.58172 2 10 2ZM10 9.75C9.27155 9.75 8.43194 9.78263 7.50293 9.87207C7.50234 9.91465 7.5 9.95728 7.5 10C7.5 12.4132 8.45174 14.6025 9.99902 16.2197C11.547 14.6025 12.5 12.4137 12.5 10C12.5 9.95662 12.4967 9.91335 12.4961 9.87012C11.7128 9.79467 10.879 9.75 10 9.75ZM6 10.0586C5.21793 10.1801 4.38966 10.3453 3.52539 10.5674C3.75448 13.2162 5.57176 15.4092 8.02051 16.1914C6.76193 14.4703 6.01255 12.3514 6 10.0586ZM13.999 10.0596C13.9863 12.3523 13.2372 14.4704 11.9785 16.1914C14.4274 15.4095 16.2441 13.217 16.4736 10.5684C15.7468 10.3818 14.9181 10.2024 13.999 10.0596ZM11.9805 3.80762C12.9763 5.16913 13.6521 6.77982 13.8975 8.52832C14.8255 8.6611 15.671 8.83178 16.4248 9.0127C16.0501 6.55388 14.2983 4.54829 11.9805 3.80762ZM8.02051 3.80762C5.70282 4.54788 3.94956 6.55242 3.57422 9.01074C4.45863 8.79836 5.30475 8.64143 6.10254 8.52734C6.34806 6.77904 7.02472 5.16895 8.02051 3.80762ZM9.99902 3.7793C8.81238 5.01885 7.97849 6.59476 7.65332 8.35059C8.51944 8.27647 9.30733 8.25 10 8.25C10.8204 8.25 11.6036 8.28707 12.3457 8.35059C12.0202 6.59448 11.1861 5.01891 9.99902 3.7793Z" fill="black"/>
</svg>

<!-- This Source Code Form is subject to the terms of the Mozilla Public
   - License, v. 2.0. If a copy of the MPL was not distributed with this
   - file, You can obtain one at http://mozilla.org/MPL/2.0/. -->
<svg xmlns="http://www.w3.org/2000/svg" width="20" height="20" fill="none" viewBox="0 0 20 20">
    <path fill="#000" fill-rule="evenodd" d="M10 2a8 8 0 1 1 0 16 8 8 0 0 1 0-16m0 7.75c-.728 0-1.568.033-2.497.122L7.5 10a8.97 8.97 0 0 0 2.499 6.22A8.96 8.96 0 0 0 12.5 10l-.004-.13A26 26 0 0 0 10 9.75m-4 .309c-.782.121-1.61.286-2.475.508a6.5 6.5 0 0 0 4.496 5.624A10.45 10.45 0 0 1 6 10.06m7.999 0a10.45 10.45 0 0 1-2.02 6.132 6.5 6.5 0 0 0 4.495-5.623 26 26 0 0 0-2.475-.508M11.98 3.809a10.45 10.45 0 0 1 1.918 4.72 28 28 0 0 1 2.527.485 6.51 6.51 0 0 0-4.445-5.205m-3.96 0A6.51 6.51 0 0 0 3.575 9.01c.885-.213 1.73-.37 2.529-.484a10.45 10.45 0 0 1 1.918-4.72M10 3.779a8.97 8.97 0 0 0-2.346 4.572 27.5 27.5 0 0 1 4.693 0A8.97 8.97 0 0 0 10 3.779" clip-rule="evenodd" />
</svg>
